src/images/mesh-icon/icon_bg_cluster.svg

<svg height="160" viewBox="0 0 160 160" width="160" xmlns="http://www.w3.org/2000/svg" xmlns:xlink="http://www.w3.org/1999/xlink"><defs><rect id="a" height="100" rx="8" width="100"/><filter id="b" height="200%" width="200%" x="-50%" y="-40%"><feOffset dx="0" dy="10" in="SourceAlpha" result="shadowOffsetOuter1"/><feGaussianBlur in="shadowOffsetOuter1" result="shadowBlurOuter1" stdDeviation="15"/><feColorMatrix in="shadowBlurOuter1" type="matrix" values="0 0 0 0 0.0366009094   0 0 0 0 0.0603229773   0 0 0 0 0.276098279  0 0 0 0.14 0"/></filter><filter id="c" height="161%" width="161%" x="-30.5%" y="-20.5%"><feOffset dx="1" dy="1" in="SourceAlpha" result="shadowOffsetInner1"/><feComposite in="shadowOffsetInner1" in2="SourceAlpha" k2="-1" k3="1" operator="arithmetic" result="shadowInnerInner1"/><feColorMatrix in="shadowInnerInner1" result="shadowMatrixInner1" type="matrix" values="0 0 0 0 0.929411765   0 0 0 0 0.345098039   0 0 0 0 0.929411765  0 0 0 0.05 0"/><feOffset dx="-1" dy="-1" in="SourceAlpha" result="shadowOffsetInner2"/><feComposite in="shadowOffsetInner2" in2="SourceAlpha" k2="-1" k3="1" operator="arithmetic" result="shadowInnerInner2"/><feColorMatrix in="shadowInnerInner2" result="shadowMatrixInner2" type="matrix" values="0 0 0 0 0   0 0 0 0 0.105718866   0 0 0 0 0.734375  0 0 0 0.1 0"/><feMerge><feMergeNode in="shadowMatrixInner1"/><feMergeNode in="shadowMatrixInner2"/></feMerge></filter><filter id="d" height="350%" width="348.6%" x="-124.3%" y="-125%"><feGaussianBlur in="SourceGraphic" stdDeviation="20"/></filter><filter id="e" height="350%" width="348.6%" x="-124.3%" y="-125%"><feGaussianBlur in="SourceGraphic" stdDeviation="20"/></filter><filter id="f" height="350%" width="348.6%" x="-124.3%" y="-125%"><feGaussianBlur in="SourceGraphic" stdDeviation="20"/></filter><filter id="g" height="322.2%" width="321%" x="-110.5%" y="-111.1%"><feGaussianBlur in="SourceGraphic" stdDeviation="20"/></filter><mask id="h" fill="#fff"><use fill="#fff" fill-rule="evenodd" xlink:href="#a"/></mask></defs><g fill="none" fill-rule="evenodd" transform="translate(30 20)"><use fill="#000" filter="url(#b)" xlink:href="#a"/><use fill="#fff" fill-rule="evenodd" xlink:href="#a"/><use fill="#000" filter="url(#c)" xlink:href="#a"/><g mask="url(#h)" opacity=".695382"><g transform="translate(-12 38)"><ellipse cx="50.847826" cy="24" fill="#6f38ff" filter="url(#d)" opacity=".204297" rx="24.130435" ry="24"/><rect fill="#0080ff" filter="url(#e)" height="48" opacity=".303934" rx="3.36" width="48.26087" x="80.73913" y="14"/><path d="m90.7486957 54c1.8556767 0 3.36 1.5043232 3.36 3.36v20.64c0 13.254834-10.8035637 24-24.1304348 24-13.3268712 0-24.1304348-10.745166-24.1304348-24s10.8035636-24 24.1304348-24z" fill="#1ee7e7" filter="url(#f)" opacity=".196027"/><ellipse cx="27.146739" cy="70.6" fill="#ed58ed" filter="url(#g)" opacity=".198842" rx="27.146739" ry="27"/></g></g><g mask="url(#h)"><g transform="translate(20.375 18.1875)"><rect fill="#36435c" height="17.5" rx="3.28125" width="54.6875"/><path d="m6.514003 4.375h4.373446v8.75h-4.373446z" fill="#e8eef4"/><path d="m15.260896 4.375h4.373446v8.75h-4.373446z" fill="#e8eef4"/><path d="m37.182062 7.65625h13.125v2.1875h-13.125z" fill="#b6c2cd"/></g><g transform="translate(20.375 37.875)"><path d="m51.40625 0c1.8121843 0 3.28125 1.46906566 3.28125 3.28125l-.0005 1.70775-4.6937583-2.71059134c-2.7348805-1.57954488-6.1045483-1.57954488-8.8394287 0l-13.1779324 7.61098561c-2.7214807 1.57180583-4.4027835 4.46998053-4.4187258 7.61079413l-20.2759048-.0001884c-1.81218434 0-3.28125-1.4690657-3.28125-3.28125v-10.9375c0-1.81218434 1.46906566-3.28125 3.28125-3.28125zm-3.4283372 4.92220156.3742668.19760057 6.3348204 3.65819787.0005 5.44075c0 1.8121843-1.4690657 3.28125-3.28125 3.28125h-24.56725l.0049791-.2066495c.0794288-1.7569561.9861423-3.3708841 2.4379975-4.3529244l.3349661-.2096384 13.1779323-7.61098557c1.5966192-.92213597 3.5372711-.98800283 5.1830378-.19760057z" fill="#36435c"/><g fill="#e8eef4"><path d="m6.514003 4.375h4.373446v8.75h-4.373446z"/><path d="m15.260896 4.375h4.373446v8.75h-4.373446z"/></g></g><g transform="translate(20.375 57.5625)"><path d="m23.557 0 .0000404 13.0797356c0 1.5794681.4212985 3.0989728 1.1845612 4.4209911l-21.4603516-.0007267c-1.81218434 0-3.28125-1.4690657-3.28125-3.28125v-10.9375c0-1.81218434 1.46906566-3.28125 3.28125-3.28125zm27.84925 0c1.8121843 0 3.28125 1.46906566 3.28125 3.28125v10.9375c0 1.8121843-1.4690657 3.28125-3.28125 3.28125l-22.3793761.0013034c-1.2647626-.9639999-2.0611635-2.4301425-2.1745788-4.0265564l-.0140047-.3950114-.0002904-13.0797356z" fill="#36435c"/><path d="m6.514003 4.375h4.373446v8.75h-4.373446z" fill="#e8eef4"/><path d="m15.260896 4.375h4.373446v8.75h-4.373446z" fill="#e8eef4"/><path d="m37.182062 7.65625h13.125v2.1875h-13.125z" fill="#b6c2cd"/></g><g transform="translate(47.215625 42.25)"><path d="m15.8360819.74480213-13.07841376 7.61098561c-1.70645098.99306951-2.75766814 2.82833766-2.75766814 4.81447666v15.2219712c0 1.986139 1.05121716 3.8214072 2.75766814 4.8144767l13.07841376 7.6109856c1.7064509.9930695 3.8088853.9930695 5.5153362 0l13.0784138-7.6109856c1.7064509-.9930695 2.7576681-2.8283377 2.7576681-4.8144767v-15.2219712c0-1.986139-1.0512172-3.82140715-2.7576681-4.81447666l-13.0784138-7.61098561c-1.7064509-.99306951-3.8088853-.99306951-5.5153362 0z" fill="#36435c" fill-rule="nonzero"/><path d="m15.8360819.74480213-13.07841376 7.61098561c-1.70645098.99306951-2.75766814 2.82833766-2.75766814 4.81447666v15.2219712c0 1.986139 1.05121716 3.8214072 2.75766814 4.8144767l13.07841376 7.6109856c1.7064509.9930695 3.8088853.9930695 5.5153362 0l13.0784138-7.6109856c1.7064509-.9930695 2.7576681-2.8283377 2.7576681-4.8144767v-15.2219712c0-1.986139-1.0512172-3.82140715-2.7576681-4.81447666l-13.0784138-7.61098561c-1.7064509-.99306951-3.8088853-.99306951-5.5153362 0z" fill="#36435c" fill-rule="nonzero"/><g stroke-width="2.1875"><path d="m18.59375 5.195313v7.792968" stroke="#e8eef4"/><path d="m28.623758 11.063139.026673 7.746769" stroke="#e8eef4" transform="matrix(.5 .8660254 -.8660254 .5 27.253956 -17.33219)"/><path d="m28.650431 22.752592-.026673 7.74677" stroke="#e8eef4" transform="matrix(-.5 .8660254 -.8660254 -.5 66.014415 15.138514)"/><path d="m18.59375 28.574219v7.792969" stroke="#e8eef4" transform="matrix(-1 0 0 -1 37.1875 64.941406)"/><path d="m8.537069 22.752592.026673 7.74677" stroke="#e8eef4" transform="matrix(-.5 -.8660254 .8660254 -.5 -10.233165 47.343833)"/><path d="m8.563742 11.063139-.026673 7.746769" stroke="#e8eef4" transform="matrix(.5 -.8660254 .8660254 .5 -8.660206 14.873129)"/><path d="m18.59375 12.988281v7.792969" stroke="#b6c2cd"/><path d="m21.928195 14.959623.026673 7.74677" stroke="#b6c2cd" transform="matrix(.5 .8660254 -.8660254 .5 27.280629 -9.58542)"/><path d="m21.954868 18.856107-.026673 7.74677" stroke="#b6c2cd" transform="matrix(-.5 .8660254 -.8660254 -.5 52.596615 15.092314)"/><path d="m18.59375 20.78125v7.792969" stroke="#b6c2cd" transform="matrix(-1 0 0 -1 37.1875 49.355468)"/><path d="m15.232632 18.856107.026673 7.74677" stroke="#b6c2cd" transform="matrix(-.5 -.8660254 .8660254 -.5 3.184635 47.297634)"/><path d="m15.259305 14.959623-.026673 7.74677" stroke="#b6c2cd" transform="matrix(.5 -.8660254 .8660254 .5 -8.686879 22.6199)"/><ellipse cx="18.59375" cy="20.78125" rx="8.680837" ry="8.75" stroke="#e8eef4"/><ellipse cx="18.59375" cy="20.78125" rx="8.680837" ry="8.75" stroke="#e8eef4"/></g></g></g></g></svg>

<?xml version="1.0" encoding="UTF-8"?>
<svg width="160px" height="160px" viewBox="0 0 160 160" version="1.1" xmlns="http://www.w3.org/2000/svg" xmlns:xlink="http://www.w3.org/1999/xlink">
    <title>icon_bg_cluster</title>
    <defs>
        <rect id="path-1" x="0" y="0" width="100" height="100" rx="8"></rect>
        <filter x="-50.0%" y="-40.0%" width="200.0%" height="200.0%" filterUnits="objectBoundingBox" id="filter-3">
            <feOffset dx="0" dy="10" in="SourceAlpha" result="shadowOffsetOuter1"></feOffset>
            <feGaussianBlur stdDeviation="15" in="shadowOffsetOuter1" result="shadowBlurOuter1"></feGaussianBlur>
            <feColorMatrix values="0 0 0 0 0.0366009094   0 0 0 0 0.0603229773   0 0 0 0 0.276098279  0 0 0 0.14 0" type="matrix" in="shadowBlurOuter1"></feColorMatrix>
        </filter>
        <filter x="-30.5%" y="-20.5%" width="161.0%" height="161.0%" filterUnits="objectBoundingBox" id="filter-4">
            <feOffset dx="1" dy="1" in="SourceAlpha" result="shadowOffsetInner1"></feOffset>
            <feComposite in="shadowOffsetInner1" in2="SourceAlpha" operator="arithmetic" k2="-1" k3="1" result="shadowInnerInner1"></feComposite>
            <feColorMatrix values="0 0 0 0 0.929411765   0 0 0 0 0.345098039   0 0 0 0 0.929411765  0 0 0 0.05 0" type="matrix" in="shadowInnerInner1" result="shadowMatrixInner1"></feColorMatrix>
            <feOffset dx="-1" dy="-1" in="SourceAlpha" result="shadowOffsetInner2"></feOffset>
            <feComposite in="shadowOffsetInner2" in2="SourceAlpha" operator="arithmetic" k2="-1" k3="1" result="shadowInnerInner2"></feComposite>
            <feColorMatrix values="0 0 0 0 0   0 0 0 0 0.105718866   0 0 0 0 0.734375  0 0 0 0.1 0" type="matrix" in="shadowInnerInner2" result="shadowMatrixInner2"></feColorMatrix>
            <feMerge>
                <feMergeNode in="shadowMatrixInner1"></feMergeNode>
                <feMergeNode in="shadowMatrixInner2"></feMergeNode>
            </feMerge>
        </filter>
        <filter x="-124.3%" y="-125.0%" width="348.6%" height="350.0%" filterUnits="objectBoundingBox" id="filter-5">
            <feGaussianBlur stdDeviation="20" in="SourceGraphic"></feGaussianBlur>
        </filter>
        <filter x="-124.3%" y="-125.0%" width="348.6%" height="350.0%" filterUnits="objectBoundingBox" id="filter-6">
            <feGaussianBlur stdDeviation="20" in="SourceGraphic"></feGaussianBlur>
        </filter>
        <filter x="-124.3%" y="-125.0%" width="348.6%" height="350.0%" filterUnits="objectBoundingBox" id="filter-7">
            <feGaussianBlur stdDeviation="20" in="SourceGraphic"></feGaussianBlur>
        </filter>
        <filter x="-110.5%" y="-111.1%" width="321.0%" height="322.2%" filterUnits="objectBoundingBox" id="filter-8">
            <feGaussianBlur stdDeviation="20" in="SourceGraphic"></feGaussianBlur>
        </filter>
    </defs>
    <g id="Dashboard" stroke="none" stroke-width="1" fill="none" fill-rule="evenodd">
        <g id="01-开发环境-创建环境-创建共享开发环境" transform="translate(-948.000000, -398.000000)">
            <g id="创建共享开发环境" transform="translate(244.000000, 104.000000)">
                <g id="Right" transform="translate(420.000000, 0.000000)">
                    <g id="引导图" transform="translate(0.000000, 24.000000)">
                        <g id="编组-6" transform="translate(48.000000, 290.000000)">
                            <g id="编组-2" transform="translate(266.000000, 0.000000)">
                                <mask id="mask-2" fill="white">
                                    <use xlink:href="#path-1"></use>
                                </mask>
                                <g id="icon_bg_cluster">
                                    <use fill="black" fill-opacity="1" filter="url(#filter-3)" xlink:href="#path-1"></use>
                                    <use fill="#FFFFFF" fill-rule="evenodd" xlink:href="#path-1"></use>
                                    <use fill="black" fill-opacity="1" filter="url(#filter-4)" xlink:href="#path-1"></use>
                                </g>
                                <g id="编组-7" opacity="0.695382" mask="url(#mask-2)">
                                    <g transform="translate(-12.000000, 38.000000)">
                                        <ellipse id="Oval" fill="#6F38FF" opacity="0.204297" filter="url(#filter-5)" cx="50.8478261" cy="24" rx="24.1304348" ry="24"></ellipse>
                                        <rect id="Rectangle" fill="#0080FF" opacity="0.303934" filter="url(#filter-6)" x="80.7391304" y="14" width="48.2608696" height="48" rx="3.36"></rect>
                                        <path d="M90.7486957,54 C92.6043724,54 94.1086957,55.5043232 94.1086957,57.36 L94.1086957,78 C94.1086957,91.254834 83.305132,102 69.9782609,102 C56.6513897,102 45.8478261,91.254834 45.8478261,78 C45.8478261,64.745166 56.6513897,54 69.9782609,54 L69.9782609,54 L90.7486957,54 Z" id="Combined-Shape" fill="#1EE7E7" opacity="0.196027" filter="url(#filter-7)"></path>
                                        <ellipse id="Oval-Copy-2" fill="#ED58ED" opacity="0.198842" filter="url(#filter-8)" cx="27.1467391" cy="70.6" rx="27.1467391" ry="27"></ellipse>
                                    </g>
                                </g>
                                <g id="编组-15" mask="url(#mask-2)">
                                    <g transform="translate(16.000000, 16.000000)">
                                        <g id="编组-10" transform="translate(4.375000, 2.187500)">
                                            <rect id="矩形" fill="#36435C" x="0" y="0" width="54.6875" height="17.5" rx="3.28125"></rect>
                                            <rect id="矩形" fill="#E8EEF4" x="6.5140029" y="4.375" width="4.37344635" height="8.75"></rect>
                                            <rect id="矩形备份-6" fill="#E8EEF4" x="15.2608956" y="4.375" width="4.37344635" height="8.75"></rect>
                                            <rect id="矩形备份-7" fill="#B6C2CD" x="37.1820622" y="7.65625" width="13.125" height="2.1875"></rect>
                                        </g>
                                        <g id="编组-10备份" transform="translate(4.375000, 21.875000)">
                                            <path d="M51.40625,0 C53.2184343,2.44210397e-15 54.6875,1.46906566 54.6875,3.28125 L54.687,4.989 L49.9932417,2.27840866 C47.2583612,0.698863781 43.8886934,0.698863781 41.153813,2.27840866 L27.9758806,9.88939427 C25.2543999,11.4612001 23.5730971,14.3593748 23.5571548,17.5001884 L3.28125,17.5 C1.46906566,17.5 5.82610874e-16,16.0309343 0,14.21875 L0,3.28125 C-6.66017784e-16,1.46906566 1.46906566,-1.11196348e-16 3.28125,0 L51.40625,0 Z M47.9779128,4.92220156 L48.3521796,5.11980213 L54.687,8.778 L54.6875,14.21875 C54.6875,16.0309343 53.2184343,17.5 51.40625,17.5 L26.839,17.5 L26.8439791,17.2933505 C26.9234079,15.5363944 27.8301214,13.9224664 29.2819766,12.9404261 L29.6169427,12.7307877 L42.794875,5.11980213 C44.3914942,4.19766616 46.3321461,4.1317993 47.9779128,4.92220156 Z" id="形状结合" fill="#36435C"></path>
                                            <rect id="矩形" fill="#E8EEF4" x="6.5140029" y="4.375" width="4.37344635" height="8.75"></rect>
                                            <rect id="矩形备份-6" fill="#E8EEF4" x="15.2608956" y="4.375" width="4.37344635" height="8.75"></rect>
                                        </g>
                                        <g id="编组-10备份-2" transform="translate(4.375000, 41.562500)">
                                            <path d="M23.557,0 L23.5570404,13.0797356 C23.5570404,14.6592037 23.9783389,16.1787084 24.7416016,17.5007267 L3.28125,17.5 C1.46906566,17.5 5.82610874e-16,16.0309343 0,14.21875 L0,3.28125 C-6.66017784e-16,1.46906566 1.46906566,-1.11196348e-16 3.28125,0 L23.557,0 Z M51.40625,0 C53.2184343,2.44210397e-15 54.6875,1.46906566 54.6875,3.28125 L54.6875,14.21875 C54.6875,16.0309343 53.2184343,17.5 51.40625,17.5 L29.0268739,17.5013034 C27.7621113,16.5373035 26.9657104,15.0711609 26.8522951,13.474747 L26.8382904,13.0797356 L26.838,0 L51.40625,0 Z" id="形状结合" fill="#36435C"></path>
                                            <rect id="矩形" fill="#E8EEF4" x="6.5140029" y="4.375" width="4.37344635" height="8.75"></rect>
                                            <rect id="矩形备份-6" fill="#E8EEF4" x="15.2608956" y="4.375" width="4.37344635" height="8.75"></rect>
                                            <rect id="矩形备份-7" fill="#B6C2CD" x="37.1820622" y="7.65625" width="13.125" height="2.1875"></rect>
                                        </g>
                                        <g id="编组-10" transform="translate(31.215625, 26.250000)">
                                            <path d="M15.8360819,0.74480213 L2.75766814,8.35578774 C1.05121716,9.34885725 0,11.1841254 0,13.1702644 L0,28.3922356 C0,30.3783746 1.05121716,32.2136428 2.75766814,33.2067123 L15.8360819,40.8176979 C17.5425328,41.8107674 19.6449672,41.8107674 21.3514181,40.8176979 L34.4298319,33.2067123 C36.1362828,32.2136428 37.1875,30.3783746 37.1875,28.3922356 L37.1875,13.1702644 C37.1875,11.1841254 36.1362828,9.34885725 34.4298319,8.35578774 L21.3514181,0.74480213 C19.6449672,-0.248267377 17.5425328,-0.248267377 15.8360819,0.74480213 Z" id="路径" fill="#36435C" fill-rule="nonzero"></path>
                                            <path d="M15.8360819,0.74480213 L2.75766814,8.35578774 C1.05121716,9.34885725 0,11.1841254 0,13.1702644 L0,28.3922356 C0,30.3783746 1.05121716,32.2136428 2.75766814,33.2067123 L15.8360819,40.8176979 C17.5425328,41.8107674 19.6449672,41.8107674 21.3514181,40.8176979 L34.4298319,33.2067123 C36.1362828,32.2136428 37.1875,30.3783746 37.1875,28.3922356 L37.1875,13.1702644 C37.1875,11.1841254 36.1362828,9.34885725 34.4298319,8.35578774 L21.3514181,0.74480213 C19.6449672,-0.248267377 17.5425328,-0.248267377 15.8360819,0.74480213 Z" id="路径备份" fill="#36435C" fill-rule="nonzero"></path>
                                            <line x1="18.59375" y1="5.1953125" x2="18.59375" y2="12.9882812" id="路径-2" stroke="#E8EEF4" stroke-width="2.1875"></line>
                                            <line x1="28.6237583" y1="11.0631385" x2="28.6504312" y2="18.8099084" id="路径-2" stroke="#E8EEF4" stroke-width="2.1875" transform="translate(28.637095, 14.936523) rotate(60.000000) translate(-28.637095, -14.936523) "></line>
                                            <line x1="28.6504312" y1="22.7525916" x2="28.6237583" y2="30.4993615" id="路径-2" stroke="#E8EEF4" stroke-width="2.1875" transform="translate(28.637095, 26.625977) rotate(120.000000) translate(-28.637095, -26.625977) "></line>
                                            <line x1="18.59375" y1="28.5742188" x2="18.59375" y2="36.3671875" id="路径-2" stroke="#E8EEF4" stroke-width="2.1875" transform="translate(18.593750, 32.470703) rotate(180.000000) translate(-18.593750, -32.470703) "></line>
                                            <line x1="8.53706884" y1="22.7525916" x2="8.56374173" y2="30.4993615" id="路径-2" stroke="#E8EEF4" stroke-width="2.1875" transform="translate(8.550405, 26.625977) rotate(240.000000) translate(-8.550405, -26.625977) "></line>
                                            <line x1="8.56374173" y1="11.0631385" x2="8.53706884" y2="18.8099084" id="路径-2" stroke="#E8EEF4" stroke-width="2.1875" transform="translate(8.550405, 14.936523) rotate(300.000000) translate(-8.550405, -14.936523) "></line>
                                            <line x1="18.59375" y1="12.9882812" x2="18.59375" y2="20.78125" id="路径-2" stroke="#B6C2CD" stroke-width="2.1875"></line>
                                            <line x1="21.9281951" y1="14.9596228" x2="21.954868" y2="22.7063928" id="路径-2" stroke="#B6C2CD" stroke-width="2.1875" transform="translate(21.941532, 18.833008) rotate(60.000000) translate(-21.941532, -18.833008) "></line>
                                            <line x1="21.954868" y1="18.8561072" x2="21.9281951" y2="26.6028772" id="路径-2" stroke="#B6C2CD" stroke-width="2.1875" transform="translate(21.941532, 22.729492) rotate(120.000000) translate(-21.941532, -22.729492) "></line>
                                            <line x1="18.59375" y1="20.78125" x2="18.59375" y2="28.5742188" id="路径-2" stroke="#B6C2CD" stroke-width="2.1875" transform="translate(18.593750, 24.677734) rotate(180.000000) translate(-18.593750, -24.677734) "></line>
                                            <line x1="15.232632" y1="18.8561072" x2="15.2593049" y2="26.6028772" id="路径-2" stroke="#B6C2CD" stroke-width="2.1875" transform="translate(15.245968, 22.729492) rotate(240.000000) translate(-15.245968, -22.729492) "></line>
                                            <line x1="15.2593049" y1="14.9596228" x2="15.232632" y2="22.7063928" id="路径-2" stroke="#B6C2CD" stroke-width="2.1875" transform="translate(15.245968, 18.833008) rotate(300.000000) translate(-15.245968, -18.833008) "></line>
                                            <ellipse id="椭圆形" stroke="#E8EEF4" stroke-width="2.1875" cx="18.59375" cy="20.78125" rx="8.6808369" ry="8.75"></ellipse>
                                            <ellipse id="椭圆形备份" stroke="#E8EEF4" stroke-width="2.1875" cx="18.59375" cy="20.78125" rx="8.6808369" ry="8.75"></ellipse>
                                        </g>
                                    </g>
                                </g>
                            </g>
                        </g>
                    </g>
                </g>
            </g>
        </g>
    </g>
</svg>
